build/img/i-count-kurs.svg

<svg width="24" height="24" viewBox="0 0 24 24" fill="none" xmlns="http://www.w3.org/2000/svg">
<path fill-rule="evenodd" clip-rule="evenodd" d="M7.3304 2.00037H16.6694C20.0704 2.00037 21.9904 3.92937 22.0004 7.33037V16.6704C22.0004 20.0704 20.0704 22.0004 16.6694 22.0004H7.3304C3.9294 22.0004 2.0004 20.0704 2.0004 16.6704V7.33037C2.0004 3.92937 3.9294 2.00037 7.3304 2.00037ZM12.0494 17.8604C12.4804 17.8604 12.8394 17.5404 12.8794 17.1104V6.92037C12.9194 6.61037 12.7704 6.29937 12.5004 6.13037C12.2194 5.96037 11.8794 5.96037 11.6104 6.13037C11.3394 6.29937 11.1904 6.61037 11.2194 6.92037V17.1104C11.2704 17.5404 11.6294 17.8604 12.0494 17.8604ZM16.6504 17.8604C17.0704 17.8604 17.4294 17.5404 17.4804 17.1104V13.8304C17.5094 13.5094 17.3604 13.2104 17.0894 13.0404C16.8204 12.8704 16.4804 12.8704 16.2004 13.0404C15.9294 13.2104 15.7804 13.5094 15.8204 13.8304V17.1104C15.8604 17.5404 16.2194 17.8604 16.6504 17.8604ZM8.2194 17.1104C8.1794 17.5404 7.8204 17.8604 7.3894 17.8604C6.9594 17.8604 6.5994 17.5404 6.5604 17.1104V10.2004C6.5304 9.88937 6.6794 9.58037 6.9504 9.41037C7.2194 9.24037 7.5604 9.24037 7.8304 9.41037C8.0994 9.58037 8.2504 9.88937 8.2194 10.2004V17.1104Z" fill="#E45851"/>
</svg>

<svg width="24" height="24" fill="none" xmlns="http://www.w3.org/2000/svg"><path fill-rule="evenodd" clip-rule="evenodd" d="M7.33 2h9.34c3.4 0 5.32 1.93 5.33 5.33v9.34c0 3.4-1.93 5.33-5.33 5.33H7.33C3.93 22 2 20.07 2 16.67V7.33C2 3.93 3.93 2 7.33 2zm4.72 15.86c.43 0 .79-.32.83-.75V6.92a.815.815 0 00-.38-.79.84.84 0 00-1.28.79v10.19c.05.43.41.75.83.75zm4.6 0c.42 0 .78-.32.83-.75v-3.28a.839.839 0 00-1.28-.79.806.806 0 00-.38.79v3.28c.04.43.4.75.83.75zm-8.43-.75a.827.827 0 01-.83.75c-.43 0-.79-.32-.83-.75V10.2a.84.84 0 01.39-.79c.27-.17.61-.17.88 0s.42.48.39.79v6.91z" fill="#E45851"/></svg>
